svg/tennis_ball_outline.svg

<svg xmlns="http://www.w3.org/2000/svg" viewBox="0 0 24 24"><path d="M8.17 2.76A10.1 10.1 0 0 1 12 2c1.31 0 2.61.26 3.83.76 1.21.5 2.31 1.24 3.24 2.17s1.67 2.03 2.17 3.24c.5 1.22.76 2.52.76 3.83 0 2.65-1.05 5.2-2.93 7.07A9.97 9.97 0 0 1 12 22a10.1 10.1 0 0 1-3.83-.76 10 10 0 0 1-3.24-2.17A9.97 9.97 0 0 1 2 12c0-2.65 1.05-5.2 2.93-7.07.93-.93 2.03-1.67 3.24-2.17M6.89 18.15a7.98 7.98 0 0 0 10.22 0A9.97 9.97 0 0 1 15 12c0-2.32.79-4.45 2.11-6.15A7.96 7.96 0 0 0 12 4c-1.88 0-3.68.66-5.11 1.85A10 10 0 0 1 9 12c0 2.32-.79 4.46-2.11 6.15M5.5 16.67C6.44 15.35 7 13.74 7 12s-.56-3.35-1.5-4.66A8 8 0 0 0 4 12c0 1.68.53 3.31 1.5 4.67m13-9.33A7.97 7.97 0 0 0 17 12c0 1.74.56 3.35 1.5 4.67A8.02 8.02 0 0 0 20 12c0-1.68-.53-3.31-1.5-4.66"/></svg>

<svg xmlns="http://www.w3.org/2000/svg" id="mdi-tennis-ball-outline" viewBox="0 0 24 24"><path d="M8.17 2.76C9.39 2.26 10.69 2 12 2C13.31 2 14.61 2.26 15.83 2.76C17.04 3.26 18.14 4 19.07 4.93C20 5.86 20.74 6.96 21.24 8.17C21.74 9.39 22 10.69 22 12C22 14.65 20.95 17.2 19.07 19.07C17.2 20.95 14.65 22 12 22C10.69 22 9.39 21.74 8.17 21.24C6.96 20.74 5.86 20 4.93 19.07C3.05 17.2 2 14.65 2 12C2 9.35 3.05 6.8 4.93 4.93C5.86 4 6.96 3.26 8.17 2.76M6.89 18.15C8.32 19.34 10.12 20 12 20C13.88 20 15.68 19.34 17.11 18.15C15.79 16.46 15 14.32 15 12C15 9.68 15.79 7.55 17.11 5.85C15.69 4.66 13.88 4 12 4C10.12 4 8.32 4.66 6.89 5.85C8.21 7.55 9 9.68 9 12C9 14.32 8.21 16.46 6.89 18.15M5.5 16.67C6.44 15.35 7 13.74 7 12C7 10.26 6.44 8.65 5.5 7.34C4.53 8.69 4 10.32 4 12C4 13.68 4.53 15.31 5.5 16.67M18.5 7.34C17.56 8.65 17 10.26 17 12C17 13.74 17.56 15.35 18.5 16.67C19.47 15.31 20 13.69 20 12C20 10.32 19.47 8.69 18.5 7.34Z" /></svg>
